Catalina-light/actions/22/im-aim.svg

<svg xmlns="http://www.w3.org/2000/svg" viewBox="0 0 22 22">
  <defs id="defs3051">
    <style type="text/css" id="current-color-scheme">
      .ColorScheme-Text {
        color:#4d4d4d
      }
      </style>
  </defs>
 <path 
     style="fill:currentColor;fill-opacity:1;stroke:none"      
	 class="ColorScheme-Text"
        d="M 11 3 A 8 8 0 0 0 3 11 A 8 8 0 0 0 11 19 A 8 8 0 0 0 19 11 A 8 8 0 0 0 11 3 z M 14.181641 8.3007812 L 14.964844 8.3007812 L 14.964844 13.207031 L 14.181641 13.207031 L 14.181641 8.3007812 z M 7.1035156 8.6015625 L 7.7988281 8.6015625 L 9.7773438 13.207031 L 8.84375 13.207031 L 8.4160156 12.15625 L 6.4277344 12.15625 L 6.0097656 13.207031 L 5.1015625 13.207031 L 7.1035156 8.6015625 z M 7.4179688 9.5839844 C 7.3525288 9.8140844 7.2795656 10.027849 7.1972656 10.230469 L 6.703125 11.451172 L 8.1308594 11.451172 L 7.6347656 10.208984 C 7.5566656 10.012674 7.4833688 9.8056244 7.4179688 9.5839844 z M 11.765625 9.9902344 C 12.025265 9.9902344 12.264855 10.034594 12.484375 10.121094 C 12.706005 10.207654 12.896524 10.340101 13.052734 10.519531 C 13.208924 10.698941 13.320925 10.906305 13.390625 11.140625 C 13.434925 11.288345 13.457031 11.487101 13.457031 11.738281 C 13.457031 11.862831 13.428094 12.024383 13.371094 12.220703 C 13.316204 12.414863 13.215953 12.593133 13.070312 12.757812 C 12.926783 12.922423 12.746874 13.055097 12.527344 13.154297 C 12.309944 13.251447 12.044812 13.300781 11.732422 13.300781 C 11.232152 13.300781 10.827544 13.145934 10.521484 12.839844 C 10.215414 12.533814 10.0625 12.134585 10.0625 11.640625 C 10.0625 11.142485 10.227361 10.743109 10.556641 10.443359 C 10.885921 10.141549 11.288595 9.9902344 11.765625 9.9902344 z M 11.765625 10.681641 C 11.503895 10.681641 11.286361 10.771762 11.113281 10.951172 C 10.940151 11.128482 10.855469 11.36285 10.855469 11.65625 C 10.855469 11.94967 10.938709 12.185971 11.105469 12.363281 C 11.274329 12.538411 11.484824 12.626953 11.740234 12.626953 C 11.923874 12.626953 12.086939 12.580741 12.230469 12.494141 C 12.376119 12.407631 12.486794 12.294077 12.558594 12.148438 C 12.630354 12.002787 12.664062 11.846311 12.664062 11.681641 C 12.664062 11.394581 12.58948 11.156727 12.4375 10.966797 C 12.28763 10.776757 12.063255 10.681641 11.765625 10.681641 z M 16.382812 12.214844 C 16.526352 12.214844 16.646894 12.263924 16.746094 12.365234 C 16.847444 12.466554 16.898438 12.588892 16.898438 12.732422 C 16.898438 12.873842 16.847404 12.996346 16.746094 13.097656 C 16.644774 13.199006 16.524243 13.25 16.382812 13.25 C 16.239283 13.25 16.116945 13.198809 16.015625 13.099609 C 15.914275 12.998289 15.863281 12.875952 15.863281 12.732422 C 15.863281 12.588882 15.912519 12.466544 16.011719 12.365234 C 16.113049 12.263924 16.237172 12.214844 16.382812 12.214844 z "
     />
</svg>

<svg viewBox="0 0 22 22" xmlns="http://www.w3.org/2000/svg">
<defs>
<style id="current-color-scheme" type="text/css">.ColorScheme-Text {
        color:#4d4d4d
      }</style>
</defs>
<path class="ColorScheme-Text" d="m11 3a8 8 0 0 0-8 8 8 8 0 0 0 8 8 8 8 0 0 0 8-8 8 8 0 0 0-8-8zm3.1816 5.3008h0.7832v4.9062h-0.7832v-4.9062zm-7.0781 0.30078h0.69531l1.9785 4.6055h-0.93359l-0.42773-1.0508h-1.9883l-0.41797 1.0508h-0.9082l2.002-4.6055zm0.31445 0.98242c-0.06544 0.2301-0.1384 0.44386-0.2207 0.64648l-0.49414 1.2207h1.4277l-0.49609-1.2422c-0.0781-0.19631-0.1514-0.40336-0.2168-0.625zm4.3477 0.40625c0.25964 0 0.49923 0.04436 0.71875 0.13086 0.22163 0.08656 0.41215 0.21901 0.56836 0.39844 0.15619 0.17941 0.26819 0.38677 0.33789 0.62109 0.0443 0.14772 0.066406 0.34648 0.066406 0.59766 0 0.12455-0.028937 0.2861-0.085937 0.48242-0.05489 0.19416-0.15514 0.37243-0.30078 0.53711-0.14353 0.16461-0.32344 0.29728-0.54297 0.39648-0.2174 0.09715-0.48253 0.14648-0.79492 0.14648-0.50027 0-0.90488-0.15485-1.2109-0.46094-0.30607-0.30603-0.45898-0.70526-0.45898-1.1992 0-0.49814 0.16486-0.89752 0.49414-1.1973 0.32928-0.30181 0.73195-0.45312 1.209-0.45312zm0 0.69141c-0.26173 0-0.47926 0.090121-0.65234 0.26953-0.17313 0.17731-0.25781 0.41168-0.25781 0.70508 0 0.29342 0.08324 0.52972 0.25 0.70703 0.16886 0.17513 0.37936 0.26367 0.63476 0.26367 0.18364 0 0.3467-0.046212 0.49024-0.13281 0.14565-0.08651 0.25632-0.20006 0.32812-0.3457 0.07176-0.14565 0.10547-0.30213 0.10547-0.4668 0-0.28706-0.074582-0.52491-0.22656-0.71484-0.14987-0.19004-0.37424-0.28516-0.67188-0.28516zm4.6172 1.5332c0.14354 0 0.26408 0.04908 0.36328 0.15039 0.10135 0.10132 0.15234 0.22366 0.15234 0.36719 0 0.14142-0.051034 0.26392-0.15234 0.36523-0.10132 0.10135-0.22185 0.15234-0.36328 0.15234-0.14353 0-0.26587-0.051191-0.36719-0.15039-0.10135-0.10132-0.15234-0.22366-0.15234-0.36719 0-0.14354 0.049238-0.26588 0.14844-0.36719 0.10133-0.10131 0.22545-0.15039 0.37109-0.15039z" fill="currentColor"/>
</svg>
